#define app_width 32
#define app_height 32
static unsigned char app_bits[] = {
  0xff,0xff,0xff,0xff,0x01,0x00,0x00,0x80,0x01,0x00,0x00,0x80,0x01,0x00,0x00,0x80,
  0x01,0x00,0x00,0x80,0x01,0x00,0x00,0x80,0x01,0xfe,0x7f,0x80,0x01,0x02,0x40,0x80,
  0x01,0x02,0x40,0x80,0x01,0x02,0x40,0x80,0x01,0x02,0x40,0x80,0x01,0x02,0x40,0x80,
  0x01,0x02,0x40,0x80,0x01,0x02,0x40,0x80,0x01,0x02,0x40,0x80,0x01,0x02,0x40,0x80,
  0x01,0x02,0x40,0x80,0x01,0x02,0x40,0x80,0x01,0x02,0x40,0x80,0x01,0x02,0x40,0x80,
  0x01,0x02,0x40,0x80,0x01,0x02,0x40,0x80,0x01,0x02,0x40,0x80,0x01,0x02,0x40,0x80,
  0x01,0x02,0x40,0x80,0x01,0x02,0x40,0x80,0x01,0x02,0x40,0x80,0x01,0x02,0x40,0x80,
  0x01,0x02,0x40,0x80,0x01,0xfe,0x7f,0x80,0x01,0x00,0x00,0x80,0x01,0x00,0x00,0x80,
  0x01,0x00,0x00,0x80,0xff,0xff,0xff,0xff};
